X:1
T:1b. A New Season Harmony 1
C:c 1999 Harry Bolick
R:Waltz
O:US
A:Brooklyn, New York
M:3/4
L:1/8
Q:300
K:D
de|:"D"  f2 fe dc | "Bm" B3  cB2  |"A"  A2  c2 A2 |"G"  G3  A/2G/2 FE |
"D" D4 D2 | "A" A2 AF Bc | [1 "G" d3 A Bc | "A" C2 cB AG |"D"  A3 c de :|
[2 "G"  d2 dc B2| "G"  D2 Dc B2 | "D"  D4 D2 ||
K:G
|:"Bm"  B3 F D2 | "Em"  E4  E2 |"Bm"   B3 G F2 |"C"  G4 G2 |
"G" GA GA B2 |[1 BA GF "Am" EE | "Bm"  F4 F2 :|
[2 "Bm" BA GF "A" FG  | "D" A2 A2 A2 | "A" A6 ||
